packages/assets/static/images/icons/bold/book-open-text--bold.svg

<svg width="24" height="24" viewBox="0 0 24 24" xmlns="http://www.w3.org/2000/svg">
<path d="M22.25 4.125H15.5C14.9377 4.12482 14.3814 4.23995 13.8654 4.46328C13.3494 4.68662 12.8847 5.0134 12.5 5.42344C12.1153 5.0134 11.6506 4.68662 11.1346 4.46328C10.6186 4.23995 10.0623 4.12482 9.5 4.125H2.75C2.45163 4.125 2.16548 4.24353 1.9545 4.4545C1.74353 4.66548 1.625 4.95163 1.625 5.25V18.75C1.625 19.0484 1.74353 19.3345 1.9545 19.5455C2.16548 19.7565 2.45163 19.875 2.75 19.875H9.5C9.99728 19.875 10.4742 20.0725 10.8258 20.4242C11.1775 20.7758 11.375 21.2527 11.375 21.75C11.375 22.0484 11.4935 22.3345 11.7045 22.5455C11.9155 22.7565 12.2016 22.875 12.5 22.875C12.7984 22.875 13.0845 22.7565 13.2955 22.5455C13.5065 22.3345 13.625 22.0484 13.625 21.75C13.625 21.2527 13.8225 20.7758 14.1742 20.4242C14.5258 20.0725 15.0027 19.875 15.5 19.875H22.25C22.5484 19.875 22.8345 19.7565 23.0455 19.5455C23.2565 19.3345 23.375 19.0484 23.375 18.75V5.25C23.375 4.95163 23.2565 4.66548 23.0455 4.4545C22.8345 4.24353 22.5484 4.125 22.25 4.125ZM9.5 17.625H3.875V6.375H9.5C9.99728 6.375 10.4742 6.57254 10.8258 6.92418C11.1775 7.27581 11.375 7.75272 11.375 8.25V18.0759C10.7947 17.7789 10.1519 17.6243 9.5 17.625ZM21.125 17.625H15.5C14.8479 17.6246 14.2051 17.7798 13.625 18.0778V8.25C13.625 7.75272 13.8225 7.27581 14.1742 6.92418C14.5258 6.57254 15.0027 6.375 15.5 6.375H21.125V17.625ZM15.875 9H18.875C19.1734 9 19.4595 9.11853 19.6705 9.3295C19.8815 9.54048 20 9.82663 20 10.125C20 10.4234 19.8815 10.7095 19.6705 10.9205C19.4595 11.1315 19.1734 11.25 18.875 11.25H15.875C15.5766 11.25 15.2905 11.1315 15.0795 10.9205C14.8685 10.7095 14.75 10.4234 14.75 10.125C14.75 9.82663 14.8685 9.54048 15.0795 9.3295C15.2905 9.11853 15.5766 9 15.875 9ZM20 13.875C20 14.1734 19.8815 14.4595 19.6705 14.6705C19.4595 14.8815 19.1734 15 18.875 15H15.875C15.5766 15 15.2905 14.8815 15.0795 14.6705C14.8685 14.4595 14.75 14.1734 14.75 13.875C14.75 13.5766 14.8685 13.2905 15.0795 13.0795C15.2905 12.8685 15.5766 12.75 15.875 12.75H18.875C19.1734 12.75 19.4595 12.8685 19.6705 13.0795C19.8815 13.2905 20 13.5766 20 13.875Z"/>
</svg>

<svg viewBox="0 0 24 24" xmlns="http://www.w3.org/2000/svg" aria-hidden="true" fill="currentColor"><path d="M22.25 4.125H15.5a4.11 4.11 0 0 0-3 1.298 4.11 4.11 0 0 0-3-1.298H2.75A1.125 1.125 0 0 0 1.625 5.25v13.5a1.125 1.125 0 0 0 1.125 1.125H9.5a1.875 1.875 0 0 1 1.875 1.875 1.125 1.125 0 1 0 2.25 0 1.875 1.875 0 0 1 1.875-1.875h6.75a1.125 1.125 0 0 0 1.125-1.125V5.25a1.125 1.125 0 0 0-1.125-1.125M9.5 17.625H3.875V6.375H9.5a1.875 1.875 0 0 1 1.875 1.875v9.826a4.1 4.1 0 0 0-1.875-.451m11.625 0H15.5c-.652 0-1.295.155-1.875.453V8.25A1.875 1.875 0 0 1 15.5 6.375h5.625zM15.875 9h3a1.125 1.125 0 0 1 0 2.25h-3a1.125 1.125 0 1 1 0-2.25M20 13.875A1.125 1.125 0 0 1 18.875 15h-3a1.125 1.125 0 1 1 0-2.25h3A1.125 1.125 0 0 1 20 13.875"/></svg>
